src/pos-icons/tank.svg

<svg height="24" viewBox="0 0 24 24" width="24" xmlns="http://www.w3.org/2000/svg"><path d="m20 12h-16v-1h2l1-5h5l1 5h7zm-6.78-5 .4 2h8.38v-2zm8.78 9a3 3 0 0 1 -3 3h-14a3 3 0 0 1 -3-3 3 3 0 0 1 3-3h14a3 3 0 0 1 3 3m-16 0a1 1 0 0 0 -1-1 1 1 0 0 0 -1 1 1 1 0 0 0 1 1 1 1 0 0 0 1-1m7 0a1 1 0 0 0 -1-1 1 1 0 0 0 -1 1 1 1 0 0 0 1 1 1 1 0 0 0 1-1m7 0a1 1 0 0 0 -1-1 1 1 0 0 0 -1 1 1 1 0 0 0 1 1 1 1 0 0 0 1-1z"/></svg>

<?xml version="1.0" encoding="UTF-8"?><!DOCTYPE svg PUBLIC "-//W3C//DTD SVG 1.1//EN" "http://www.w3.org/Graphics/SVG/1.1/DTD/svg11.dtd"><svg xmlns="http://www.w3.org/2000/svg" xmlns:xlink="http://www.w3.org/1999/xlink" version="1.1" id="mdi-tank" width="24" height="24" viewBox="0 0 24 24"><path d="M20,12H4V11H6L7,6H12L13,11H20V12M13.22,7L13.62,9H22V7H13.22M22,16A3,3 0 0,1 19,19H5A3,3 0 0,1 2,16A3,3 0 0,1 5,13H19A3,3 0 0,1 22,16M6,16A1,1 0 0,0 5,15A1,1 0 0,0 4,16A1,1 0 0,0 5,17A1,1 0 0,0 6,16M13,16A1,1 0 0,0 12,15A1,1 0 0,0 11,16A1,1 0 0,0 12,17A1,1 0 0,0 13,16M20,16A1,1 0 0,0 19,15A1,1 0 0,0 18,16A1,1 0 0,0 19,17A1,1 0 0,0 20,16Z" /></svg>
